X: 3
T: The Woods Of Old Limerick
R: jig
M: 6/8
L: 1/8
K: Fmaj
AFF GAB | cff _ecB | AFF GAB | GCC GAB |AFF GAB | cff _ecB | AFF GAB | GFE F2 :|aff fgf | _ecc cfg | aff fga | bge ffg |agf gfe | fgf _ecB | AFF GAB | GFE F2 :|


Tune 3893	Setting 28255

